X:1
T:Title
%%score { ( 1 3 ) | ( 2 4 ) }
L:1/8
M:6/8
K:D
V:1 treble nm="Grand Piano"
V:3 treble 
V:2 bass 
V:4 bass 
V:1
 z3 z[Q:1/4=95] [FA]2 | [FA]2 [FA] [DF][EG][FA] | B3 d2 B | z3 .d3 | E3- E2 G | G2 G EF[A,EG] | %6
 [A,DF]3 [DFA]2 [=FB] | c2 c edB | [CA]3- [CA]2 [GA] | [GA]2 [CGA] [CGA]2 [GA] | %10
 [FA]2 [DFA] [DFA]2 [DFA] | .[CGA]2 [CGA] [CGA]2 [CGA] | [DFA]2 [FA] [FA]2 [A,FA] | %13
 [Fd]2 [Fd] [Ed]2 [=Fd] | [Fd]2 A F2 D | [DA]2 [DA] [=CA]2 [CA] | [CA]6 | %17
[M:12/8] [A,CG][A,D]D DA-[FA-] [FA]d-[Ad-] [Ad][F,F]-[F,-DF-] | %18
 [F,DF][B,D]D D[G,G]-[G,-DG-] [G,DG]B-[GB-] [GB-][EGB-][GB] | %19
 dc-[Gc-] [Gc]G-[EG-] [EG]B-[GB-] [GB]c-[Gc-] | %20
 [Gc]A-[FA-] [FA-][=CFA-][FA-] [FA-][^CGA-][GA-] [GA-][CGA-][GA] | %21
 Ad-[FAd-] [FAd][Dd]-[DBd-] [FAd]^d-[Ad-] [Ad][B,B]-[B,AB-] | %22
 [^DAB]e-[Be-] [Be]d-[Gd-] [Gd]c-[=Fc-] [Fc-][=DFc-][Fc] | %23
 [=FB][A,A]-[A,-^FA-] [A,FA]B-[=FB-] [FB]c-[Ac-] [Ac]d-[Gd-] | %24
[M:11/8] [Ad]d-[Gd-][Gd]c-[Ac-][Ac][DFAd]- [DFAd]3- | [DFAd]2 z z z z z z z z2 |] %26
V:2
 z3 z [D,D]2 | [D,D]2 [D,D] [D,A,]2 [D,D] | [G,DG]3 [G,B,G]2 [G,DG] | %3
 [D,D]2 [D,A,] [D,A,]2 [F,A,D] | [A,C]3- [A,C]2[K:treble] [A,E] | [A,E]2 [A,E] CD[K:bass]A,, | %6
 D,3 D,2 [D,A,] | [E,A,E]2 [E,A,E] CB,[E,^G,D] | [A,,A,]3- [A,,A,]2 [A,C] | [A,C]CB, A,B,C | %10
 D2 F, A,2 A, | A,CB, A,E,=F, | z2 D D2 D, | [B,,B,]2 [B,,B,] [B,,^G,]2 [^A,,G,] | %14
 [A,,A,]2 A, F,2 D, | [A,,F,]2 [A,,F,] [A,,^D,]2 [A,,D,] | [A,,E,]6 | %17
[M:12/8] .[A,,,A,,]2 A, .A,2 D .D2 D .D2 A, | .A,2 B, .B,2 B, .B,2 E .E2 E | %19
 .[EG]2 C .C2 C .C2 C .C2 C | .C2 D .D2 =C .C2 ^C .C2 C | .[CG]2 D .D2 F .[C,C]2 F .F2 ^D | %22
 .[A,,A,]2 E .E2 E .E2 D z2 D | .D2 D .D2 D .D2 E .E2 D | %24
[M:11/8] .D2 E .E2[K:treble] [EG][EG][K:bass][D,,D,]- [D,,D,]3- | [D,,D,]2 z z z z z z z z2 |] %26
V:3
 x6 | x6 | x6 | [FA]2 [DF] F-[FA]F | x6 | x6 | x6 | x6 | x6 | x6 | x6 | x6 | x6 | x6 | x6 | x6 | %16
 x6 |[M:12/8] z F2- F .[DF]2 z .[DA]2 z .[A,D]2 | z [G,E]2- [G,E] .[B,D]2 z .[EG]2 z3 | %19
 z .[CG]2 z .[CE]2 z .[CG]2 z .[CG]2 | z .[DF]2 z3 z6 | z .[DFA]2 z .[FA]2 z .[FA]2 z .[^DA]2 | %22
 z .[EB]2 z .[EG]2 z .[=D=F]2 z3 | z .[D^F]2 z .[D=F]2 z .[EA]2 z .[DA]2 | %24
[M:11/8] z .[EG]3/2 z/ z .[EGA]3/2 z/ z z z z2 | x11 |] %26
V:4
 x6 | x6 | x6 | x6 | x5[K:treble] x | z3 .A,3[K:bass] | x6 | z3 .[E,E]3 | x6 | x6 | x6 | x6 | F,6 | %13
 x6 | x6 | x6 | x6 |[M:12/8] z [D,,D,]2- [D,,D,] [D,,D,]2- [D,,D,] [F,,F,]2- [F,,F,] F,,2- | %18
 F,, G,,2- G,, G,,2- G,, [E,,E,]2- [E,,E,] [E,,E,]2- | %19
 [E,,E,] [A,,,A,,]2- [A,,,A,,] [A,,,A,,]2- [A,,,A,,] [E,,E,]2- [E,,E,] [A,,,A,,]2- | %20
 [A,,,A,,] [D,,D,]2- [D,,D,] [^D,,^D,]2- [D,,D,] [E,,E,]2- [E,,E,] [A,,,A,,]2- | %21
 [A,,,A,,] [D,,D,]2- [D,,D,] D,2 z [B,,B,]2- [B,,B,] B,,2 | %22
 z [G,,G,]2- [G,,G,] [B,,B,]2- [B,,B,] [^G,,^G,]2- [G,,G,] [G,,G,]2- | %23
 [G,,G,] A,,2- A,, [^G,,^G,]2- [G,,G,] [=G,,=G,]2- [G,,G,] [F,,F,]2- | %24
[M:11/8] [F,,F,] [E,,E,]3 [A,,,A,,]3[K:treble][K:bass] z z z2 | x11 |] %26

